Numix-Square/48x48/apps/assaultcube.svg

<svg xmlns="http://www.w3.org/2000/svg" xmlns:xlink="http://www.w3.org/1999/xlink" width="48" viewBox="0 0 13.546667 13.546667" height="48">
 <defs>
  <linearGradient id="0">
   <stop stop-color="#d12f2f"/>
   <stop offset="1" stop-color="#dc6060"/>
  </linearGradient>
  <linearGradient xlink:href="#0" id="1" gradientUnits="userSpaceOnUse" gradientTransform="matrix(0.28222223,0,0,0.28222223,-0.17638542,-283.2782)" y1="1050.36" x2="0" y2="1006.36"/>
 </defs>
 <path d="m 1.42875,0.63499977 c -0.63606477,0 -1.14652777,0.51045543 -1.14652777,1.14652783 l 0,10.3363894 c 0,0.636072 0.510463,1.146528 1.14652777,1.146528 l 10.336389,0 c 0.636065,0 1.146528,-0.510456 1.146528,-1.146528 l 0,-10.3363894 c 0,-0.6360724 -0.510463,-1.14652783 -1.146528,-1.14652783 l -10.336389,0 z m 0.026458,0.035278 10.283473,0 c 0.632511,0 1.137708,0.50520603 1.137708,1.13772253 l 0,10.2834727 c 0,0.632488 -0.505197,1.137694 -1.137708,1.137694 l -10.283473,0 c -0.63251127,0 -1.13770827,-0.505206 -1.13770827,-1.137694 l 0,-10.2834727 c 0,-0.6325165 0.505197,-1.13772253 1.13770827,-1.13772253 z" opacity="0.3"/>
 <rect rx="1.129" y="0.74" x="0.388" height="12.418" width="12.418" fill="url(#1)"/>
 <path d="M 19.8125 12 C 19.013208 12.001179 18.342551 13.523809 19.90625 13.1875 C 20.516138 12.986222 20.440494 12 19.8125 12 z M 29 13 C 28.5342 13 28.093028 13.538352 28.3125 13.84375 C 28.372102 13.926706 28.67912 14.01247 28.96875 14.03125 C 29.368619 14.057159 29.46875 13.935144 29.46875 13.53125 C 29.46875 13.154837 29.339839 13 29 13 z M 22.15625 13.3125 C 21.226279 13.241621 20.174092 14.05622 20 15 C 19.885801 15.590941 19.974738 15.951929 19.46875 15.8125 C 19.154824 15.725972 18.435239 15.058783 18 15 C 17.313402 15.104319 16.500741 15.896279 17 17 C 17.491212 17.577794 17.658602 17.994402 17 18 C 15.51487 18.389779 14.967191 18.72342 15.46875 20.40625 C 15.565268 20.68908 15.52831 21.049376 15.125 21.46875 C 14.520689 22.097109 14.480156 22.129149 13.5625 21.84375 C 12.267683 21.444362 10.857903 23.027638 13.46875 23 C 15.118425 22.804855 15.297655 23.194735 13.875 23.9375 C 12.910125 24.441259 12.600482 24.644009 12.59375 25.21875 C 12.587103 25.785467 12.847893 25.958347 13.5625 26.25 C 15.141716 26.807512 15.808272 27.017838 16 29 C 16 29.598278 15.903571 30.622619 16.46875 30.96875 C 17.01477 31.303134 17.150232 31.542724 17.0625 31.9375 C 16.908664 32.629654 17.382591 32.831289 18.3125 32.5 C 19.352981 32.129331 19.49767 32.397686 18.6875 33.125 C 18.242454 33.524532 18.03125 33.983354 18.03125 34.4375 C 18.041547 35.467082 21.165615 36.183525 20.65625 34 C 20.420847 33.011497 19.920748 32.273242 21 32 C 21.717367 31.742203 22.384549 32.808587 23 33 C 24.441297 33.448255 25.51044 32.806095 26.375 32.0625 C 26.901231 31.609903 27.450199 31.675534 27.78125 31.75 C 28.991711 31.999026 33.688457 32.412397 31.90625 29.46875 C 31.170298 28.397203 31.319138 28.185089 32.8125 28.21875 C 34.036897 28.246348 34.139663 28.200003 34.21875 27.71875 C 34.266053 27.430841 34.14914 26.977396 33.96875 26.6875 C 33.696411 26.24991 33.707394 26.124301 34 25.96875 C 34.273724 25.823229 34.069925 25.034104 33.75 24.28125 C 33.087767 22.152465 35.18912 18.434551 33.09375 17.75 C 31.827996 17.292213 33.509512 14.81024 31.59375 15.40625 C 31.037277 15.566918 30.648691 15.282617 30 14.84375 C 29.068323 14.376152 28.785851 14.354234 27.625 14.40625 C 26.634192 14.44675 26.169678 13.140776 25 14 C 24.014327 15.030808 24.250983 14.524814 23 13.71875 C 22.75 13.46875 22.46624 13.336126 22.15625 13.3125 z M 35.25 21.25 C 35.094126 21.289794 34.953218 21.397396 34.78125 21.53125 C 34.309682 21.898312 34.281557 21.926687 34.6875 22.3125 C 35.274654 22.870524 35.90263 22.725773 36 22 C 36.076743 21.427945 35.717623 21.130617 35.25 21.25 z M 23.8125 33.78125 C 23.642288 33.816832 23.605173 34.003098 23.65625 34.3125 C 23.700835 34.582502 23.915697 34.8125 24.125 34.8125 C 24.351509 34.8125 24.514594 35.049051 24.5625 35.40625 C 24.60665 35.736249 24.761012 36 24.875 36 C 24.988953 36 25.139557 35.736249 25.21875 35.40625 C 25.332122 34.9339 25.258176 34.541865 24.71875 34.15625 C 24.285349 33.84644 23.982712 33.745668 23.8125 33.78125 z M 26.1875 34.09375 C 26.031376 34.074567 25.875 34.151103 25.875 34.34375 C 25.875007 34.533746 26.06036 34.6875 26.28125 34.6875 C 26.502175 34.6875 26.64899 34.580001 26.59375 34.4375 C 26.515356 34.235221 26.343624 34.112933 26.1875 34.09375 z M 22.34375 34.46875 C 22.204179 34.46875 21.990787 34.669998 22 35 C 22.015874 35.531673 22.150533 35.636675 22.34375 35.25 C 22.641459 34.654064 22.641459 34.46875 22.34375 34.46875 z " transform="scale(0.28222223,0.28222223)" fill="#800000"/>
 <g transform="matrix(0.66666666,0,0,0.66666666,16.706635,4.515223)">
  <path transform="scale(0.28222223,0.28222223)" d="m -52.78125,24 0,-12 -10.40625,-6 0,12 10.40625,6 z" fill="#e8e8e8"/>
  <path transform="scale(0.28222223,0.28222223)" d="m -42.40625,6 -10.375,6 0,12 10.375,-6 0,-12 z" fill="#c3c3c3"/>
  <path transform="scale(0.28222223,0.28222223)" d="m -52.78125,0 -10.40625,6 10.40625,6 10.375,-6 -10.375,-6 z" fill="#f9f9f9"/>
 </g>
</svg>

<svg viewBox="0 0 48 48"><defs><linearGradient id="linearGradient3764" x1="1" x2="47" gradientUnits="userSpaceOnUse" gradientTransform="translate(-47.997785,0.00221467)"><stop stop-color="#d43c3c" stop-opacity="1"/><stop offset="1" stop-color="#d84d4d" stop-opacity="1"/></linearGradient><clipPath id="clipPath-626415615"><g transform="translate(0,-1004.3622)"><rect rx="4" y="1005.36" x="1" height="46" width="46" fill="#1890d0"/></g></clipPath><clipPath id="clipPath-645569451"><g transform="translate(0,-1004.3622)"><rect rx="4" y="1005.36" x="1" height="46" width="46" fill="#1890d0"/></g></clipPath></defs><g><g transform="translate(0,-1004.3622)"><path d="m 5 1006.36 c -2.216 0 -4 1.784 -4 4 l 0 37.25 c 0 2.216 1.784 4 4 4 l 38 0 c 2.216 0 4 -1.784 4 -4 l 0 -37.25 c 0 -2.216 -1.784 -4 -4 -4 l -38 0 z m -4 41.5 0 0.5 c 0 2.216 1.784 4 4 4 l 38 0 c 2.216 0 4 -1.784 4 -4 l 0 -0.5 c 0 2.216 -1.784 4 -4 4 l -38 0 c -2.216 0 -4 -1.784 -4 -4 z" opacity="0.02"/><path d="m 1 1047.61 0 0.25 c 0 2.216 1.784 4 4 4 l 38 0 c 2.216 0 4 -1.784 4 -4 l 0 -0.25 c 0 2.216 -1.784 4 -4 4 l -38 0 c -2.216 0 -4 -1.784 -4 -4 z" opacity="0.05"/><rect width="46" height="46" x="1" y="1005.61" rx="4" opacity="0.1"/></g></g><g><rect width="46" height="46" x="-46.998" y="1" rx="4" transform="matrix(0,-1,1,0,0,0)" fill="url(#linearGradient3764)" fill-opacity="1"/></g><g/><g><g clip-path="url(#clipPath-626415615)"><g opacity="0.1"><!-- color: #d84d4d --><g><path d="m 19.813 12 c -0.797 0 -1.469 1.523 0.094 1.188 c 0.609 -0.199 0.535 -1.188 -0.094 -1.188 m 9.188 1 c -0.465 0 -0.906 0.539 -0.688 0.844 c 0.059 0.082 0.367 0.168 0.656 0.188 c 0.398 0.027 0.5 -0.094 0.5 -0.5 c 0 -0.375 -0.129 -0.531 -0.469 -0.531 m -6.844 0.313 c -0.93 -0.07 -1.98 0.746 -2.156 1.691 c -0.113 0.594 -0.023 0.949 -0.531 0.813 c -0.313 -0.086 -1.031 -0.754 -1.469 -0.813 c -0.688 0.102 -1.496 0.895 -1 2 c 0.492 0.574 0.66 0.992 0 1 c -1.484 0.391 -2.031 0.723 -1.531 2.402 c 0.098 0.285 0.063 0.648 -0.344 1.066 c -0.602 0.629 -0.645 0.66 -1.563 0.375 c -1.293 -0.398 -2.703 1.184 -0.094 1.156 c 1.648 -0.195 1.828 0.191 0.406 0.938 c -0.965 0.504 -1.273 0.707 -1.281 1.281 c -0.008 0.563 0.254 0.742 0.969 1.031 c 1.578 0.559 2.246 0.77 2.438 2.75 c 0 0.598 -0.094 1.625 0.469 1.969 c 0.547 0.336 0.684 0.574 0.594 0.969 c -0.152 0.695 0.32 0.895 1.25 0.566 c 1.043 -0.371 1.188 -0.105 0.375 0.625 c -0.445 0.395 -0.656 0.852 -0.656 1.313 c 0.012 1.027 3.137 1.746 2.625 -0.438 c -0.234 -0.992 -0.734 -1.73 0.348 -2 c 0.715 -0.266 1.383 0.809 2 1 c 1.438 0.441 2.508 -0.195 3.375 -0.941 c 0.523 -0.453 1.074 -0.387 1.402 -0.313 c 1.211 0.25 5.91 0.66 4.125 -2.281 c -0.734 -1.07 -0.586 -1.281 0.906 -1.25 c 1.227 0.023 1.328 -0.023 1.406 -0.5 c 0.047 -0.285 -0.07 -0.738 -0.25 -1.031 c -0.27 -0.438 -0.258 -0.563 0.031 -0.719 c 0.273 -0.148 0.07 -0.938 -0.25 -1.691 c -0.66 -2.129 1.441 -5.848 -0.656 -6.527 c -1.266 -0.457 0.418 -2.941 -1.5 -2.348 c -0.555 0.16 -0.945 -0.125 -1.594 -0.563 c -0.93 -0.469 -1.215 -0.488 -2.375 -0.438 c -0.988 0.039 -1.453 -1.266 -2.625 -0.406 c -0.984 1.031 -0.746 0.523 -2 -0.281 c -0.25 -0.25 -0.531 -0.383 -0.844 -0.406 m 13.09 7.941 c -0.156 0.035 -0.297 0.145 -0.469 0.277 c -0.473 0.367 -0.5 0.398 -0.094 0.781 c 0.586 0.559 1.215 0.414 1.313 -0.313 c 0.078 -0.57 -0.281 -0.867 -0.75 -0.75 m -11.438 12.531 c -0.168 0.035 -0.207 0.223 -0.156 0.531 c 0.047 0.27 0.258 0.5 0.469 0.5 c 0.227 0 0.391 0.238 0.438 0.594 c 0.047 0.332 0.199 0.594 0.313 0.594 c 0.117 0 0.266 -0.262 0.348 -0.594 c 0.109 -0.473 0.039 -0.863 -0.5 -1.25 c -0.434 -0.309 -0.738 -0.41 -0.906 -0.375 m 2.371 0.313 c -0.156 -0.02 -0.313 0.059 -0.313 0.25 c 0 0.191 0.184 0.344 0.406 0.344 c 0.219 0 0.367 -0.102 0.313 -0.25 c -0.078 -0.199 -0.25 -0.324 -0.406 -0.344 m -3.844 0.375 c -0.141 0 -0.352 0.203 -0.344 0.531 c 0.016 0.531 0.152 0.637 0.344 0.25 c 0.297 -0.594 0.297 -0.781 0 -0.781 m 0 0" stroke="none" fill-rule="nonzero" fill-opacity="1" fill="#000"/><path d="m 24.01 32 l 0 -8 l -6.941 -4 l 0 8 m 6.941 4" stroke="none" fill-rule="nonzero" fill-opacity="1" fill="#000"/><path d="m 30.922 20 l -6.914 4 l 0 8 l 6.914 -4 m 0 -8" stroke="none" fill-rule="nonzero" fill-opacity="1" fill="#000"/><path d="m 24.01 16 l -6.941 4 l 6.941 4 l 6.918 -4 m -6.918 -4" stroke="none" fill-rule="nonzero" fill-opacity="1" fill="#000"/></g></g></g></g><g><g clip-path="url(#clipPath-645569451)"><g transform="translate(0,-1)"><!-- color: #d84d4d --><g><path d="m 19.813 12 c -0.797 0 -1.469 1.523 0.094 1.188 c 0.609 -0.199 0.535 -1.188 -0.094 -1.188 m 9.188 1 c -0.465 0 -0.906 0.539 -0.688 0.844 c 0.059 0.082 0.367 0.168 0.656 0.188 c 0.398 0.027 0.5 -0.094 0.5 -0.5 c 0 -0.375 -0.129 -0.531 -0.469 -0.531 m -6.844 0.313 c -0.93 -0.07 -1.98 0.746 -2.156 1.691 c -0.113 0.594 -0.023 0.949 -0.531 0.813 c -0.313 -0.086 -1.031 -0.754 -1.469 -0.813 c -0.688 0.102 -1.496 0.895 -1 2 c 0.492 0.574 0.66 0.992 0 1 c -1.484 0.391 -2.031 0.723 -1.531 2.402 c 0.098 0.285 0.063 0.648 -0.344 1.066 c -0.602 0.629 -0.645 0.66 -1.563 0.375 c -1.293 -0.398 -2.703 1.184 -0.094 1.156 c 1.648 -0.195 1.828 0.191 0.406 0.938 c -0.965 0.504 -1.273 0.707 -1.281 1.281 c -0.008 0.563 0.254 0.742 0.969 1.031 c 1.578 0.559 2.246 0.77 2.438 2.75 c 0 0.598 -0.094 1.625 0.469 1.969 c 0.547 0.336 0.684 0.574 0.594 0.969 c -0.152 0.695 0.32 0.895 1.25 0.566 c 1.043 -0.371 1.188 -0.105 0.375 0.625 c -0.445 0.395 -0.656 0.852 -0.656 1.313 c 0.012 1.027 3.137 1.746 2.625 -0.438 c -0.234 -0.992 -0.734 -1.73 0.348 -2 c 0.715 -0.266 1.383 0.809 2 1 c 1.438 0.441 2.508 -0.195 3.375 -0.941 c 0.523 -0.453 1.074 -0.387 1.402 -0.313 c 1.211 0.25 5.91 0.66 4.125 -2.281 c -0.734 -1.07 -0.586 -1.281 0.906 -1.25 c 1.227 0.023 1.328 -0.023 1.406 -0.5 c 0.047 -0.285 -0.07 -0.738 -0.25 -1.031 c -0.27 -0.438 -0.258 -0.563 0.031 -0.719 c 0.273 -0.148 0.07 -0.938 -0.25 -1.691 c -0.66 -2.129 1.441 -5.848 -0.656 -6.527 c -1.266 -0.457 0.418 -2.941 -1.5 -2.348 c -0.555 0.16 -0.945 -0.125 -1.594 -0.563 c -0.93 -0.469 -1.215 -0.488 -2.375 -0.438 c -0.988 0.039 -1.453 -1.266 -2.625 -0.406 c -0.984 1.031 -0.746 0.523 -2 -0.281 c -0.25 -0.25 -0.531 -0.383 -0.844 -0.406 m 13.09 7.941 c -0.156 0.035 -0.297 0.145 -0.469 0.277 c -0.473 0.367 -0.5 0.398 -0.094 0.781 c 0.586 0.559 1.215 0.414 1.313 -0.313 c 0.078 -0.57 -0.281 -0.867 -0.75 -0.75 m -11.438 12.531 c -0.168 0.035 -0.207 0.223 -0.156 0.531 c 0.047 0.27 0.258 0.5 0.469 0.5 c 0.227 0 0.391 0.238 0.438 0.594 c 0.047 0.332 0.199 0.594 0.313 0.594 c 0.117 0 0.266 -0.262 0.348 -0.594 c 0.109 -0.473 0.039 -0.863 -0.5 -1.25 c -0.434 -0.309 -0.738 -0.41 -0.906 -0.375 m 2.371 0.313 c -0.156 -0.02 -0.313 0.059 -0.313 0.25 c 0 0.191 0.184 0.344 0.406 0.344 c 0.219 0 0.367 -0.102 0.313 -0.25 c -0.078 -0.199 -0.25 -0.324 -0.406 -0.344 m -3.844 0.375 c -0.141 0 -0.352 0.203 -0.344 0.531 c 0.016 0.531 0.152 0.637 0.344 0.25 c 0.297 -0.594 0.297 -0.781 0 -0.781 m 0 0" fill="#7f0000" stroke="none" fill-rule="nonzero" fill-opacity="1"/><path d="m 24.01 32 l 0 -8 l -6.941 -4 l 0 8 m 6.941 4" fill="#e5e5e5" stroke="none" fill-rule="nonzero" fill-opacity="1"/><path d="m 30.922 20 l -6.914 4 l 0 8 l 6.914 -4 m 0 -8" fill="#c1c1c1" stroke="none" fill-rule="nonzero" fill-opacity="1"/><path d="m 24.01 16 l -6.941 4 l 6.941 4 l 6.918 -4 m -6.918 -4" fill="#f9f9f9" stroke="none" fill-rule="nonzero" fill-opacity="1"/></g></g></g></g><g><g transform="translate(0,-1004.3622)"><path d="m 1 1043.36 0 4 c 0 2.216 1.784 4 4 4 l 38 0 c 2.216 0 4 -1.784 4 -4 l 0 -4 c 0 2.216 -1.784 4 -4 4 l -38 0 c -2.216 0 -4 -1.784 -4 -4 z" opacity="0.1"/></g></g></svg>
